svg/express.svg

<svg viewBox="0 0 20 20" xmlns="http://www.w3.org/2000/svg">
<rect width="100%" height="100%" fill="black"/>
<path d="M18 14.4444C17.418 14.5938 17.058 14.4509 16.735 13.9611L14.438 10.7515L14.106 10.3071L11.4235 13.9717C11.117 14.4126 10.7955 14.6045 10.2235 14.4484L13.6585 9.79151L10.4605 5.58504C11.0105 5.47697 11.3905 5.53202 11.728 6.02942L14.1105 9.27895L16.5105 6.04709C16.818 5.60625 17.1485 5.4386 17.7005 5.6012L16.4605 7.26157L14.7805 9.47085C14.5805 9.72334 14.608 9.89604 14.792 10.1399L18 14.4444ZM2.004 9.71374L2.285 8.31798C3.05 5.55575 6.185 4.40794 8.347 6.11476C9.6105 7.11866 9.9245 8.53866 9.862 10.1293H2.74C2.633 12.9926 4.6735 14.7206 7.275 13.8389C8.1875 13.5294 8.725 12.8077 8.994 11.9048C9.1305 11.4524 9.3565 11.3817 9.7775 11.511C9.5625 12.6401 9.0775 13.5834 8.0525 14.1737C6.521 15.0574 4.335 14.7716 3.185 13.5435C2.5 12.831 2.217 11.9281 2.09 10.9626C2.07 10.803 2.03 10.651 2 10.498C2.00267 10.2367 2.004 9.97549 2.004 9.71425V9.71374ZM2.753 9.52185H9.189C9.147 7.45144 7.8705 5.98094 6.126 5.96832C4.211 5.95317 2.836 7.38882 2.753 9.52185Z" fill="white"/>
</svg>

<svg xmlns="http://www.w3.org/2000/svg" viewBox="0 0 20 20">
  <rect width="100%" height="100%"/>
  <path fill="#fff" d="M18 14.44c-.58.15-.94.01-1.27-.48l-2.3-3.2-.32-.45-2.69 3.66c-.3.44-.62.63-1.2.48l3.44-4.66-3.2-4.2c.55-.11.93-.06 1.27.44l2.38 3.25 2.4-3.23c.3-.44.64-.61 1.2-.45l-1.25 1.66-1.68 2.21c-.2.25-.17.43.01.67l3.21 4.3ZM2 9.71l.29-1.4c.76-2.75 3.9-3.9 6.06-2.2 1.26 1 1.57 2.43 1.51 4.02H2.74c-.1 2.86 1.93 4.6 4.54 3.7.9-.3 1.44-1.02 1.71-1.93.14-.45.37-.52.79-.39-.22 1.13-.7 2.07-1.73 2.66-1.53.89-3.72.6-4.87-.63a4.4 4.4 0 0 1-1.09-2.58c-.02-.16-.06-.3-.09-.46V9.7Zm.75-.19H9.2c-.04-2.07-1.32-3.54-3.06-3.55-1.92-.02-3.3 1.42-3.38 3.55Z"/>
</svg>
